Hatter-kde-dark/actions/16/format-add-node.svg

<svg xmlns="http://www.w3.org/2000/svg" viewBox="0 0 16 16">
  <defs id="defs3051">
    <style type="text/css" id="current-color-scheme">
      .ColorScheme-Text {
        color:#dedede;
      }
      </style>
  </defs>
 <path style="fill:currentColor;fill-opacity:1;stroke:none" 
     d="M 3.5 2 C 2.6715729 2 2 2.6715729 2 3.5 C 2 4.1558381 2.413588 4.7024102 3 4.90625 L 3 5 L 3 6 L 3 11 L 2 11 L 2 14 L 5 14 L 5 13 L 8 13 L 8 12 L 5 12 L 5 11 L 4 11 L 4 6 L 4 5 L 4 4.90625 C 4.4320931 4.7560523 4.7560523 4.4320931 4.90625 4 L 5 4 L 6 4 L 11 4 L 11 5 L 12 5 L 12 8 L 13 8 L 13 5 L 14 5 L 14 2 L 11 2 L 11 3 L 6 3 L 5 3 L 4.90625 3 C 4.7024102 2.413588 4.1558381 2 3.5 2 z M 3.5 3 C 3.7761424 3 4 3.2238576 4 3.5 C 4 3.7761424 3.7761424 4 3.5 4 C 3.2238576 4 3 3.7761424 3 3.5 C 3 3.2238576 3.2238576 3 3.5 3 z M 12 3 L 13 3 L 13 4 L 12 4 L 12 3 z M 11 9 L 11 11 L 9 11 L 9 12 L 11 12 L 11 14 L 12 14 L 12 12 L 14 12 L 14 11 L 12 11 L 12 9 L 11 9 z M 3 12 L 4 12 L 4 13 L 3 13 L 3 12 z "
     class="ColorScheme-Text"
     />
</svg>

<?xml version="1.0" encoding="UTF-8"?>
<svg viewBox="0 0 16 16" xmlns="http://www.w3.org/2000/svg">
 <defs id="defs3051">
  <style id="current-color-scheme" type="text/css">.ColorScheme-Text {
        color:#dedede;
      }</style>
 </defs>
 <path class="ColorScheme-Text" d="m3.5 2c-0.82843 0-1.5 0.67157-1.5 1.5 0 0.65584 0.41359 1.2024 1 1.4062v0.09375 1 5h-1v3h3v-1h3v-1h-3v-1h-1v-5-1-0.09375c0.43209-0.1502 0.75605-0.47416 0.90625-0.90625h0.09375 1 5v1h1v3h1v-3h1v-3h-3v1h-5-1-0.09375c-0.20384-0.58641-0.75041-1-1.4062-1zm0 1c0.27614 0 0.5 0.22386 0.5 0.5s-0.22386 0.5-0.5 0.5-0.5-0.22386-0.5-0.5 0.22386-0.5 0.5-0.5zm8.5 0h1v1h-1v-1zm-1 6v2h-2v1h2v2h1v-2h2v-1h-2v-2h-1zm-8 3h1v1h-1v-1z" fill="currentColor"/>
</svg>
